src/assets/langs/cplusplus.svg

<?xml version="1.0" encoding="UTF-8"?>
<svg xmlns="http://www.w3.org/2000/svg" xmlns:xlink="http://www.w3.org/1999/xlink" viewBox="0 0 48 48" width="48px" height="48px">
<g id="surface204005045">
<path style="fill-rule:nonzero;fill:rgb(39.607844%,60.392159%,82.352942%);fill-opacity:1;stroke-width:40;stroke-linecap:butt;stroke-linejoin:round;stroke:rgb(100%,100%,100%);stroke-opacity:1;stroke-miterlimit:10;" d="M 209.416966 56.504325 C 210.953233 59.230658 211.883648 62.346466 211.883648 65.072799 L 211.883648 160.927193 C 211.883648 163.653525 210.931596 166.769334 209.330416 169.495667 L 209.049128 169.885143 C 207.621049 172.416738 205.56548 174.688681 203.293537 175.986935 L 121.56847 223.935769 C 116.851482 226.662102 109.126873 226.662102 104.431522 223.935769 L 22.684818 175.986935 C 20.434511 174.688681 18.357306 172.416738 16.950864 169.885143 L 16.647938 169.495667 C 15.068396 166.769334 14.116344 163.653525 14.116344 160.927193 L 14.116344 65.072799 C 14.116344 59.511946 17.989467 52.739389 22.684818 50.013057 L 104.431522 2.064222 C 109.126873 -0.66211 116.851482 -0.66211 121.56847 2.064222 L 203.293537 50.013057 C 205.56548 51.419498 207.729237 53.669805 209.330416 56.309587 Z M 184.468859 116.678381 L 191.717442 116.678381 L 191.717442 124.208252 L 199.074212 124.208252 L 199.074212 116.678381 L 206.430983 116.678381 L 206.430983 109.23506 L 199.074212 109.23506 L 199.074212 101.79174 L 191.739079 101.79174 L 191.739079 109.23506 L 184.468859 109.23506 Z M 156.967519 116.678381 L 164.32429 116.678381 L 164.32429 124.208252 L 171.572873 124.208252 L 171.572873 116.678381 L 178.908006 116.678381 L 178.908006 109.23506 L 171.572873 109.23506 L 171.572873 101.79174 L 164.32429 101.79174 L 164.32429 109.23506 L 156.967519 109.23506 Z M 112.999996 179.946609 C 137.190789 179.860058 158.395598 166.682784 169.971693 146.711315 L 170.079881 146.516577 L 141.539938 129.769105 L 141.431751 129.855656 C 135.784347 139.830571 125.138667 146.430027 112.999996 146.516577 C 100.861324 146.516577 90.215645 139.830571 84.568241 129.855656 C 81.647171 124.857379 80.045991 119.123426 80.045991 112.999996 C 80.045991 94.543157 94.824445 79.483414 112.999996 79.483414 C 125.138667 79.569965 135.784347 86.169421 141.539938 96.230886 L 170.079881 79.483414 L 169.885143 79.202126 C 158.482148 59.425396 137.298977 46.139933 112.999996 46.053383 C 76.648894 46.053383 47.091986 76.086317 47.091986 112.999996 C 47.091986 125.333406 50.359258 136.82295 56.114849 146.711315 C 67.517843 166.574596 88.809203 179.946609 112.999996 179.946609 Z M 112.999996 179.946609 " transform="matrix(0.180531,0,0,0.180531,3.6,3.6)"/>
<path style="fill-rule:nonzero;fill:rgb(0%,26.666668%,50.980395%);fill-opacity:1;stroke-width:40;stroke-linecap:butt;stroke-linejoin:round;stroke:rgb(100%,100%,100%);stroke-opacity:1;stroke-miterlimit:10;" d="M 112.999996 112.999996 L 141.431751 129.855656 C 135.784347 139.830571 125.160305 146.430027 112.999996 146.516577 C 100.861324 146.516577 90.215645 139.830571 84.568241 129.855656 Z M 112.999996 112.999996 " transform="matrix(0.180531,0,0,0.180531,3.6,3.6)"/>
<path style="fill-rule:nonzero;fill:rgb(0%,26.666668%,50.980395%);fill-opacity:1;stroke-width:40;stroke-linecap:butt;stroke-linejoin:round;stroke:rgb(100%,100%,100%);stroke-opacity:1;stroke-miterlimit:10;" d="M 203.315174 175.986935 L 121.56847 223.935769 C 116.851482 226.662102 109.14851 226.662102 104.431522 223.935769 L 22.684818 175.986935 C 20.434511 174.688681 18.357306 172.416738 16.950864 169.885143 L 56.114849 146.711315 C 67.517843 166.574596 88.809203 179.946609 112.999996 179.946609 C 137.190789 179.860058 158.395598 166.682784 169.971693 146.711315 L 209.049128 169.885143 C 207.642686 172.416738 205.56548 174.688681 203.315174 175.986935 Z M 203.315174 175.986935 " transform="matrix(0.180531,0,0,0.180531,3.6,3.6)"/>
<path style="fill-rule:nonzero;fill:rgb(34.509805%,52.549022%,71.764708%);fill-opacity:1;stroke-width:40;stroke-linecap:butt;stroke-linejoin:round;stroke:rgb(100%,100%,100%);stroke-opacity:1;stroke-miterlimit:10;" d="M 112.999996 79.483414 L 112.999996 112.999996 L 84.568241 129.855656 C 81.647171 124.857379 80.045991 119.123426 80.045991 112.999996 C 80.045991 94.543157 94.824445 79.483414 112.999996 79.483414 Z M 112.999996 0.00865413 L 112.999996 46.053383 C 76.648894 46.053383 47.091986 76.086317 47.091986 112.999996 C 47.091986 125.333406 50.359258 136.82295 56.114849 146.711315 L 16.950864 169.885143 L 16.647938 169.495667 C 15.068396 166.769334 14.116344 163.653525 14.116344 160.927193 L 14.116344 65.072799 C 14.116344 59.511946 17.989467 52.739389 22.684818 50.013057 L 104.431522 2.064222 C 106.790016 0.701056 109.884187 0.00865413 112.999996 0.00865413 Z M 16.950864 169.885143 C 18.357306 172.416738 20.434511 174.688681 22.684818 175.986935 C 20.434511 174.688681 18.357306 172.416738 16.950864 169.885143 Z M 16.950864 169.885143 " transform="matrix(0.180531,0,0,0.180531,3.6,3.6)"/>
<path style="fill-rule:nonzero;fill:rgb(0%,23.137255%,44.313726%);fill-opacity:1;stroke-width:40;stroke-linecap:butt;stroke-linejoin:round;stroke:rgb(100%,100%,100%);stroke-opacity:1;stroke-miterlimit:10;" d="M 112.999996 112.999996 L 112.999996 146.516577 C 100.861324 146.516577 90.215645 139.830571 84.568241 129.855656 Z M 112.999996 112.999996 " transform="matrix(0.180531,0,0,0.180531,3.6,3.6)"/>
<path style="fill-rule:nonzero;fill:rgb(0%,23.137255%,44.313726%);fill-opacity:1;stroke-width:40;stroke-linecap:butt;stroke-linejoin:round;stroke:rgb(100%,100%,100%);stroke-opacity:1;stroke-miterlimit:10;" d="M 56.114849 146.711315 C 67.517843 166.574596 88.809203 179.946609 112.999996 179.946609 L 112.999996 225.991338 C 109.884187 225.991338 106.790016 225.298936 104.431522 223.935769 L 22.684818 175.986935 C 20.434511 174.688681 18.378943 172.416738 16.950864 169.885143 Z M 56.114849 146.711315 " transform="matrix(0.180531,0,0,0.180531,3.6,3.6)"/>
<path style="fill-rule:nonzero;fill:rgb(0%,34.901962%,61.176473%);fill-opacity:1;stroke-width:40;stroke-linecap:butt;stroke-linejoin:round;stroke:rgb(100%,100%,100%);stroke-opacity:1;stroke-miterlimit:10;" d="M 209.416966 56.504325 C 210.953233 59.230658 211.883648 62.346466 211.883648 65.072799 L 211.883648 160.927193 C 211.883648 163.653525 210.953233 166.769334 209.352054 169.495667 L 209.049128 169.885143 L 169.971693 146.711315 L 141.431751 129.855656 L 112.999996 112.999996 L 170.058243 79.483414 L 209.330416 56.309587 Z M 178.908006 116.678381 L 178.908006 109.23506 L 171.572873 109.23506 L 171.572873 101.79174 L 164.32429 101.79174 L 164.32429 109.23506 L 156.967519 109.23506 L 156.967519 116.678381 L 164.32429 116.678381 L 164.32429 124.208252 L 171.572873 124.208252 L 171.572873 116.678381 Z M 206.409345 116.678381 L 206.409345 109.23506 L 199.074212 109.23506 L 199.074212 101.79174 L 191.739079 101.79174 L 191.739079 109.23506 L 184.468859 109.23506 L 184.468859 116.678381 L 191.717442 116.678381 L 191.717442 124.208252 L 199.074212 124.208252 L 199.074212 116.678381 Z M 206.409345 116.678381 " transform="matrix(0.180531,0,0,0.180531,3.6,3.6)"/>
<path style="fill-rule:nonzero;fill:rgb(87.058824%,87.058824%,87.058824%);fill-opacity:1;stroke-width:40;stroke-linecap:butt;stroke-linejoin:round;stroke:rgb(100%,100%,100%);stroke-opacity:1;stroke-miterlimit:10;" d="M 178.908006 116.678381 L 171.572873 116.678381 L 171.572873 124.208252 L 164.32429 124.208252 L 164.32429 116.678381 L 156.967519 116.678381 L 156.967519 112.999996 L 178.908006 112.999996 Z M 178.908006 116.678381 " transform="matrix(0.180531,0,0,0.180531,3.6,3.6)"/>
<path style="fill-rule:nonzero;fill:rgb(87.058824%,87.058824%,87.058824%);fill-opacity:1;stroke-width:40;stroke-linecap:butt;stroke-linejoin:round;stroke:rgb(100%,100%,100%);stroke-opacity:1;stroke-miterlimit:10;" d="M 206.409345 116.678381 L 199.074212 116.678381 L 199.074212 124.208252 L 191.717442 124.208252 L 191.717442 116.678381 L 184.468859 116.678381 L 184.468859 112.999996 L 206.409345 112.999996 Z M 206.409345 116.678381 " transform="matrix(0.180531,0,0,0.180531,3.6,3.6)"/>
<path style="fill-rule:nonzero;fill:rgb(0%,30.19608%,53.333336%);fill-opacity:1;stroke-width:40;stroke-linecap:butt;stroke-linejoin:round;stroke:rgb(100%,100%,100%);stroke-opacity:1;stroke-miterlimit:10;" d="M 211.883648 112.999996 L 211.883648 160.927193 C 211.883648 163.653525 210.953233 166.769334 209.352054 169.495667 L 209.049128 169.885143 L 169.971693 146.711315 L 141.431751 129.855656 L 112.999996 112.999996 L 156.967519 112.999996 L 156.967519 116.678381 L 164.32429 116.678381 L 164.32429 124.208252 L 171.572873 124.208252 L 171.572873 116.678381 L 178.908006 116.678381 L 178.908006 112.999996 L 184.468859 112.999996 L 184.468859 116.678381 L 191.717442 116.678381 L 191.717442 124.208252 L 199.074212 124.208252 L 199.074212 116.678381 L 206.409345 116.678381 L 206.409345 112.999996 Z M 211.883648 112.999996 " transform="matrix(0.180531,0,0,0.180531,3.6,3.6)"/>
<path style=" stroke:none;fill-rule:nonzero;fill:rgb(39.607844%,60.392159%,82.352942%);fill-opacity:1;" d="M 41.40625 13.800781 L 41.390625 13.765625 C 41.101562 13.289062 40.710938 12.882812 40.300781 12.628906 L 25.546875 3.972656 C 24.695312 3.480469 23.300781 3.480469 22.453125 3.972656 L 7.695312 12.628906 C 6.847656 13.121094 6.148438 14.34375 6.148438 15.347656 L 6.148438 32.652344 C 6.148438 33.144531 6.320312 33.707031 6.605469 34.199219 L 6.660156 34.269531 C 6.914062 34.726562 7.289062 35.136719 7.695312 35.371094 L 22.453125 44.027344 C 23.300781 44.519531 24.695312 44.519531 25.546875 44.027344 L 40.300781 35.371094 C 40.710938 35.136719 41.082031 34.726562 41.339844 34.269531 L 41.390625 34.199219 C 41.679688 33.707031 41.851562 33.144531 41.851562 32.652344 L 41.851562 15.347656 C 41.851562 14.855469 41.683594 14.292969 41.40625 13.800781 Z M 36.902344 24.664062 L 36.902344 23.320312 L 38.214844 23.320312 L 38.214844 21.976562 L 39.539062 21.976562 L 39.539062 23.320312 L 40.867188 23.320312 L 40.867188 24.664062 L 39.539062 24.664062 L 39.539062 26.023438 L 38.210938 26.023438 L 38.210938 24.664062 Z M 31.9375 24.664062 L 31.9375 23.320312 L 33.265625 23.320312 L 33.265625 21.976562 L 34.574219 21.976562 L 34.574219 23.320312 L 35.898438 23.320312 L 35.898438 24.664062 L 34.574219 24.664062 L 34.574219 26.023438 L 33.265625 26.023438 L 33.265625 24.664062 Z M 24 36.085938 C 19.632812 36.085938 15.789062 33.671875 13.730469 30.085938 C 12.691406 28.300781 12.101562 26.226562 12.101562 24 C 12.101562 17.335938 17.4375 11.914062 24 11.914062 C 28.386719 11.929688 32.210938 14.328125 34.269531 17.898438 L 34.304688 17.949219 L 29.152344 20.972656 C 28.113281 19.15625 26.191406 17.964844 24 17.949219 C 20.71875 17.949219 18.050781 20.667969 18.050781 24 C 18.050781 25.105469 18.339844 26.140625 18.867188 27.042969 C 19.886719 28.84375 21.808594 30.050781 24 30.050781 C 26.191406 30.035156 28.113281 28.84375 29.132812 27.042969 L 29.152344 27.027344 L 34.304688 30.050781 L 34.285156 30.085938 C 32.195312 33.691406 28.367188 36.070312 24 36.085938 Z M 24 36.085938 "/>
<path style=" stroke:none;fill-rule:nonzero;fill:rgb(0%,26.666668%,50.980395%);fill-opacity:1;" d="M 18.867188 27.042969 L 24 24 L 29.132812 27.042969 C 28.113281 28.84375 26.195312 30.035156 24 30.050781 C 21.808594 30.050781 19.886719 28.84375 18.867188 27.042969 Z M 18.867188 27.042969 "/>
<path style=" stroke:none;fill-rule:nonzero;fill:rgb(0%,26.666668%,50.980395%);fill-opacity:1;" d="M 41.339844 34.269531 C 41.085938 34.726562 40.710938 35.136719 40.304688 35.371094 L 25.546875 44.027344 C 24.695312 44.519531 23.304688 44.519531 22.453125 44.027344 L 7.695312 35.371094 C 7.289062 35.136719 6.914062 34.726562 6.660156 34.269531 L 13.730469 30.085938 C 15.789062 33.671875 19.632812 36.085938 24 36.085938 C 28.367188 36.070312 32.195312 33.691406 34.285156 30.085938 Z M 41.339844 34.269531 "/>
<path style=" stroke:none;fill-rule:nonzero;fill:rgb(34.509805%,52.549022%,71.764708%);fill-opacity:1;" d="M 24 17.949219 C 20.71875 17.949219 18.050781 20.667969 18.050781 24 C 18.050781 25.105469 18.339844 26.140625 18.867188 27.042969 C 19.886719 28.84375 21.808594 30.050781 24 30.050781 C 21.808594 30.050781 19.886719 28.84375 18.867188 27.042969 L 24 24 Z M 24 3.601562 C 23.4375 3.601562 22.878906 3.726562 22.453125 3.972656 L 7.695312 12.628906 C 6.847656 13.121094 6.148438 14.34375 6.148438 15.347656 L 6.148438 32.652344 C 6.148438 33.144531 6.320312 33.707031 6.605469 34.199219 L 6.660156 34.269531 C 6.914062 34.726562 7.289062 35.136719 7.695312 35.371094 L 22.453125 44.027344 C 22.875 44.273438 23.4375 44.398438 24 44.398438 C 23.4375 44.398438 22.875 44.273438 22.453125 44.027344 L 7.695312 35.371094 C 7.289062 35.136719 6.914062 34.726562 6.660156 34.269531 L 13.730469 30.085938 C 12.691406 28.300781 12.101562 26.226562 12.101562 24 C 12.101562 17.335938 17.4375 11.914062 24 11.914062 Z M 24 3.601562 "/>
<path style=" stroke:none;fill-rule:nonzero;fill:rgb(0%,23.137255%,44.313726%);fill-opacity:1;" d="M 24 24 L 18.867188 27.042969 C 19.886719 28.84375 21.808594 30.050781 24 30.050781 Z M 24 24 "/>
<path style=" stroke:none;fill-rule:nonzero;fill:rgb(0%,23.137255%,44.313726%);fill-opacity:1;" d="M 13.730469 30.085938 L 6.660156 34.269531 C 6.917969 34.726562 7.289062 35.136719 7.695312 35.371094 L 22.453125 44.027344 C 22.878906 44.273438 23.4375 44.398438 24 44.398438 L 24 36.085938 C 19.632812 36.085938 15.789062 33.671875 13.730469 30.085938 Z M 13.730469 30.085938 "/>
<path style=" stroke:none;fill-rule:nonzero;fill:rgb(0%,34.901962%,61.176473%);fill-opacity:1;" d="M 41.40625 13.800781 L 41.390625 13.765625 L 34.300781 17.949219 L 29.152344 20.972656 L 24 24 L 29.132812 27.042969 L 34.285156 30.085938 L 41.339844 34.269531 L 41.394531 34.199219 C 41.683594 33.707031 41.851562 33.144531 41.851562 32.652344 L 41.851562 15.347656 C 41.851562 14.855469 41.683594 14.292969 41.40625 13.800781 Z M 35.898438 24.664062 L 34.574219 24.664062 L 34.574219 26.023438 L 33.265625 26.023438 L 33.265625 24.664062 L 31.9375 24.664062 L 31.9375 23.320312 L 33.265625 23.320312 L 33.265625 21.976562 L 34.574219 21.976562 L 34.574219 23.320312 L 35.898438 23.320312 Z M 40.863281 24.664062 L 39.539062 24.664062 L 39.539062 26.023438 L 38.210938 26.023438 L 38.210938 24.664062 L 36.902344 24.664062 L 36.902344 23.320312 L 38.214844 23.320312 L 38.214844 21.976562 L 39.539062 21.976562 L 39.539062 23.320312 L 40.863281 23.320312 Z M 40.863281 24.664062 "/>
<path style=" stroke:none;fill-rule:nonzero;fill:rgb(87.058824%,87.058824%,87.058824%);fill-opacity:1;" d="M 35.898438 24 L 31.9375 24 L 31.9375 24.664062 L 33.265625 24.664062 L 33.265625 26.023438 L 34.574219 26.023438 L 34.574219 24.664062 L 35.898438 24.664062 Z M 35.898438 24 "/>
<path style=" stroke:none;fill-rule:nonzero;fill:rgb(87.058824%,87.058824%,87.058824%);fill-opacity:1;" d="M 40.863281 24 L 36.902344 24 L 36.902344 24.664062 L 38.210938 24.664062 L 38.210938 26.023438 L 39.539062 26.023438 L 39.539062 24.664062 L 40.863281 24.664062 Z M 40.863281 24 "/>
<path style=" stroke:none;fill-rule:nonzero;fill:rgb(0%,30.19608%,53.333336%);fill-opacity:1;" d="M 41.851562 24 L 40.863281 24 L 40.863281 24.664062 L 39.539062 24.664062 L 39.539062 26.023438 L 38.210938 26.023438 L 38.210938 24.664062 L 36.902344 24.664062 L 36.902344 24 L 35.898438 24 L 35.898438 24.664062 L 34.574219 24.664062 L 34.574219 26.023438 L 33.265625 26.023438 L 33.265625 24.664062 L 31.9375 24.664062 L 31.9375 24 L 24 24 L 29.132812 27.042969 L 34.285156 30.085938 L 41.339844 34.269531 L 41.394531 34.199219 C 41.683594 33.707031 41.851562 33.144531 41.851562 32.652344 Z M 41.851562 24 "/>
</g>
</svg>

<svg xmlns="http://www.w3.org/2000/svg" width="48" height="48"><path style="fill-rule:nonzero;fill:#659ad2;fill-opacity:1;stroke-width:40;stroke-linecap:butt;stroke-linejoin:round;stroke:#fff;stroke-opacity:1;stroke-miterlimit:10" d="M209.417 56.504c1.536 2.727 2.467 5.842 2.467 8.569v95.854c0 2.727-.952 5.842-2.554 8.569l-.28.39c-1.429 2.53-3.485 4.803-5.756 6.1l-81.726 47.95c-4.717 2.726-12.441 2.726-17.136 0l-81.747-47.95c-2.25-1.297-4.328-3.57-5.734-6.1l-.303-.39c-1.58-2.727-2.532-5.842-2.532-8.569V65.073c0-5.561 3.873-12.334 8.569-15.06l81.747-47.949c4.695-2.726 12.42-2.726 17.136 0l81.726 47.95c2.271 1.405 4.435 3.656 6.036 6.296Zm-24.948 60.174h7.248v7.53h7.357v-7.53h7.357v-7.443h-7.357v-7.443h-7.335v7.443h-7.27Zm-27.501 0h7.356v7.53h7.249v-7.53h7.335v-7.443h-7.335v-7.443h-7.249v7.443h-7.356ZM113 179.947c24.19-.087 45.396-13.264 56.972-33.236l.108-.194-28.54-16.748-.108.087A32.852 32.852 0 0 1 113 146.516c-12.139 0-22.784-6.685-28.432-16.66-2.92-4.999-4.522-10.733-4.522-16.856 0-18.457 14.778-33.517 32.954-33.517 12.139.087 22.784 6.686 28.54 16.748l28.54-16.748-.195-.28C158.482 59.424 137.3 46.14 113 46.052c-36.351 0-65.908 30.033-65.908 66.947 0 12.333 3.267 23.823 9.023 33.711 11.403 19.864 32.694 33.236 56.885 33.236Zm0 0" transform="translate(3.6 3.6) scale(.18053)"/><path style="fill-rule:nonzero;fill:#004482;fill-opacity:1;stroke-width:40;stroke-linecap:butt;stroke-linejoin:round;stroke:#fff;stroke-opacity:1;stroke-miterlimit:10" d="m113 113 28.432 16.856c-5.648 9.975-16.272 16.574-28.432 16.66-12.139 0-22.784-6.685-28.432-16.66Zm90.315 62.987-81.747 47.949c-4.717 2.726-12.42 2.726-17.136 0l-81.747-47.95c-2.25-1.297-4.328-3.57-5.734-6.1l39.164-23.175c11.403 19.864 32.694 33.236 56.885 33.236 24.19-.087 45.396-13.264 56.972-33.236l39.077 23.174c-1.406 2.532-3.484 4.804-5.734 6.102Zm0 0" transform="translate(3.6 3.6) scale(.18053)"/><path style="fill-rule:nonzero;fill:#5886b7;fill-opacity:1;stroke-width:40;stroke-linecap:butt;stroke-linejoin:round;stroke:#fff;stroke-opacity:1;stroke-miterlimit:10" d="M113 79.483V113l-28.432 16.856c-2.92-4.999-4.522-10.733-4.522-16.856 0-18.457 14.778-33.517 32.954-33.517ZM113 .01v46.044c-36.351 0-65.908 30.033-65.908 66.947 0 12.333 3.267 23.823 9.023 33.711L16.95 169.885l-.303-.39c-1.58-2.726-2.532-5.841-2.532-8.568V65.073c0-5.561 3.873-12.334 8.569-15.06l81.747-47.949C106.79.701 109.884.01 113 .01ZM16.95 169.885c1.407 2.532 3.485 4.804 5.735 6.102-2.25-1.298-4.328-3.57-5.734-6.102Zm0 0" transform="translate(3.6 3.6) scale(.18053)"/><path style="fill-rule:nonzero;fill:#003b71;fill-opacity:1;stroke-width:40;stroke-linecap:butt;stroke-linejoin:round;stroke:#fff;stroke-opacity:1;stroke-miterlimit:10" d="M113 113v33.517c-12.139 0-22.784-6.686-28.432-16.661Zm-56.885 33.711c11.403 19.864 32.694 33.236 56.885 33.236v46.044c-3.116 0-6.21-.692-8.568-2.055l-81.747-47.95c-2.25-1.297-4.306-3.57-5.734-6.1Zm0 0" transform="translate(3.6 3.6) scale(.18053)"/><path style="fill-rule:nonzero;fill:#00599c;fill-opacity:1;stroke-width:40;stroke-linecap:butt;stroke-linejoin:round;stroke:#fff;stroke-opacity:1;stroke-miterlimit:10" d="M209.417 56.504c1.536 2.727 2.467 5.842 2.467 8.569v95.854c0 2.727-.93 5.842-2.532 8.569l-.303.39-39.077-23.175-28.54-16.855L113 113l57.058-33.517L209.33 56.31Zm-30.509 60.174v-7.443h-7.335v-7.443h-7.249v7.443h-7.356v7.443h7.356v7.53h7.249v-7.53Zm27.501 0v-7.443h-7.335v-7.443h-7.335v7.443h-7.27v7.443h7.248v7.53h7.357v-7.53Zm0 0" transform="translate(3.6 3.6) scale(.18053)"/><path style="fill-rule:nonzero;fill:#dedede;fill-opacity:1;stroke-width:40;stroke-linecap:butt;stroke-linejoin:round;stroke:#fff;stroke-opacity:1;stroke-miterlimit:10" d="M178.908 116.678h-7.335v7.53h-7.249v-7.53h-7.356V113h21.94Zm27.502 0h-7.336v7.53h-7.357v-7.53h-7.248V113h21.94Zm0 0" transform="translate(3.6 3.6) scale(.18053)"/><path style="fill-rule:nonzero;fill:#004d88;fill-opacity:1;stroke-width:40;stroke-linecap:butt;stroke-linejoin:round;stroke:#fff;stroke-opacity:1;stroke-miterlimit:10" d="M211.884 113v47.927c0 2.727-.93 5.842-2.532 8.569l-.303.39-39.077-23.175-28.54-16.855L113 113h43.968v3.678h7.356v7.53h7.249v-7.53h7.335V113h5.56v3.678h7.25v7.53h7.356v-7.53h7.335V113Zm0 0" transform="translate(3.6 3.6) scale(.18053)"/><path style="stroke:none;fill-rule:nonzero;fill:#659ad2;fill-opacity:1" d="m41.406 13.8-.015-.034c-.29-.477-.68-.883-1.09-1.137L25.547 3.973c-.852-.493-2.246-.493-3.094 0L7.695 12.629c-.847.492-1.547 1.715-1.547 2.719v17.304c0 .493.172 1.055.457 1.547l.055.07c.254.458.63.868 1.035 1.102l14.758 8.656c.848.493 2.242.493 3.094 0L40.3 35.371c.41-.234.781-.644 1.039-1.101l.05-.07c.29-.493.462-1.055.462-1.548V15.348c0-.493-.168-1.055-.446-1.547Zm-4.504 10.864V23.32h1.313v-1.343h1.324v1.343h1.328v1.344H39.54v1.36h-1.328v-1.36Zm-4.965 0V23.32h1.329v-1.343h1.308v1.343h1.324v1.344h-1.324v1.36h-1.308v-1.36ZM24 36.086c-4.367 0-8.21-2.414-10.27-6A12.041 12.041 0 0 1 12.102 24c0-6.664 5.335-12.086 11.898-12.086 4.387.016 8.21 2.414 10.27 5.984l.035.051-5.153 3.024A5.968 5.968 0 0 0 24 17.949c-3.281 0-5.95 2.719-5.95 6.051 0 1.105.29 2.14.817 3.043A5.899 5.899 0 0 0 24 30.051a5.93 5.93 0 0 0 5.133-3.008l.02-.016 5.152 3.024-.02.035c-2.09 3.605-5.918 5.984-10.285 6Zm0 0"/><path style="stroke:none;fill-rule:nonzero;fill:#004482;fill-opacity:1" d="M18.867 27.043 24 24l5.133 3.043A5.926 5.926 0 0 1 24 30.051a5.899 5.899 0 0 1-5.133-3.008ZM41.34 34.27c-.254.457-.63.867-1.035 1.101l-14.758 8.656c-.852.493-2.242.493-3.094 0L7.695 35.371c-.406-.234-.78-.644-1.035-1.101l7.07-4.184c2.06 3.586 5.903 6 10.27 6 4.367-.016 8.195-2.395 10.285-6Zm0 0"/><path style="stroke:none;fill-rule:nonzero;fill:#5886b7;fill-opacity:1" d="M24 17.95c-3.281 0-5.95 2.718-5.95 6.05 0 1.105.29 2.14.817 3.043L24 24Zm0-14.348c-.563 0-1.121.125-1.547.37L7.695 12.63c-.847.492-1.547 1.715-1.547 2.719v17.304c0 .493.172 1.055.457 1.547l.055.07c.254.458.63.868 1.035 1.102l14.758 8.656c.422.246.985.371 1.547.371-.563 0-1.125-.125-1.547-.37L7.695 35.37c-.406-.234-.78-.644-1.035-1.101l7.07-4.184A12.041 12.041 0 0 1 12.102 24c0-6.664 5.335-12.086 11.898-12.086Zm0 0"/><path style="stroke:none;fill-rule:nonzero;fill:#003b71;fill-opacity:1" d="m24 24-5.133 3.043A5.899 5.899 0 0 0 24 30.051Zm-10.27 6.086L6.66 34.27c.258.457.63.867 1.035 1.101l14.758 8.656c.426.246.985.371 1.547.371v-8.312c-4.367 0-8.21-2.414-10.27-6Zm0 0"/><path style="stroke:none;fill-rule:nonzero;fill:#00599c;fill-opacity:1" d="m41.406 13.8-.015-.034-7.09 4.183-5.149 3.024L24 24l5.133 3.043 5.152 3.043 7.055 4.184.055-.07c.289-.493.457-1.055.457-1.548V15.348c0-.493-.168-1.055-.446-1.547Zm-5.508 10.864h-1.324v1.36h-1.308v-1.36h-1.328V23.32h1.328v-1.343h1.308v1.343h1.324Zm4.965 0H39.54v1.36h-1.328v-1.36h-1.309V23.32h1.313v-1.343h1.324v1.343h1.324Zm0 0"/><path style="stroke:none;fill-rule:nonzero;fill:#dedede;fill-opacity:1" d="M35.898 24h-3.96v.664h1.328v1.36h1.308v-1.36h1.324Zm4.965 0h-3.96v.664h1.308v1.36h1.328v-1.36h1.324Zm0 0"/><path style="stroke:none;fill-rule:nonzero;fill:#004d88;fill-opacity:1" d="M41.852 24h-.989v.664H39.54v1.36h-1.328v-1.36h-1.309V24h-1.004v.664h-1.324v1.36h-1.308v-1.36h-1.328V24H24l5.133 3.043 5.152 3.043 7.055 4.184.055-.07c.289-.493.457-1.055.457-1.548Zm0 0"/></svg>
